layouts/icon-pack/armor_heavy_head.svg

<?xml version="1.0" encoding="UTF-8"?>
<svg width="1200pt" height="1200pt" version="1.1" viewBox="0 0 1200 1200" xmlns="http://www.w3.org/2000/svg">
 <g fill="#fff">
  <path d="m934.31 197.88c-5.957-1.0078-11.844 2.1133-14.355 7.6055-2.5117 5.4922-1.0156 11.988 3.6445 15.832 14.488 11.805 27.547 25.262 38.906 40.102 44.531 58.219 55.5 136.17 26.484 203.46-15.93 38.176-44.902 69.449-81.75 88.242-4.6016 2.3672-8.043 6.5039-9.5273 11.461-1.4844 4.957-0.89062 10.305 1.6523 14.812 22.5 39.984 40.641 89.062 48.703 148.66 0.80078 5.9609 4.582 11.102 10.031 13.645 5.4492 2.543 11.816 2.1328 16.898-1.082 68.602-43.031 161.86-128.58 165.75-276.98-0.070312 0.070313 18.656-225.61-206.44-265.76z"/>
  <path d="m276.4 221.34c4.6602-3.8438 6.1562-10.34 3.6445-15.832-2.5117-5.4922-8.3984-8.6133-14.355-7.6055-225 40.148-206.25 265.83-206.25 265.83 3.8438 148.38 97.031 233.93 165.56 276.89 5.0938 3.1875 11.461 3.5625 16.895 0.99609 5.4336-2.5625 9.1875-7.7188 9.9648-13.676 8.0625-59.625 26.203-108.68 48.703-148.66 2.5078-4.4883 3.0938-9.8008 1.625-14.727-1.4688-4.9258-4.8711-9.0508-9.4297-11.43-36.871-18.773-65.871-50.039-81.82-88.219-29.016-67.289-18.023-145.31 26.484-203.46 11.383-14.844 24.465-28.301 38.977-40.102z"/>
  <path d="m319.85 825.96h123.12c7.1758-0.019532 14.066-2.8125 19.23-7.7969 5.1641-4.9844 8.1992-11.773 8.4727-18.945l11.977-305.79c0.15234-4.4688-1.3203-8.8438-4.1484-12.309-2.8242-3.4688-6.8125-5.793-11.219-6.5469-4.4102-0.75391-8.9414 0.11719-12.758 2.4492-71.203 44.531-164.77 137.34-165.77 317.51-0.054688 8.2969 3.1914 16.273 9.0273 22.172 5.8359 5.8945 13.777 9.2266 22.074 9.2578z"/>
  <path d="m748.29 478.71c-3.8086-2.4062-8.3633-3.3398-12.812-2.625-4.4453 0.71484-8.4805 3.0273-11.344 6.5078-2.8633 3.4766-4.3555 7.8789-4.2031 12.383l9.7266 304.08c0.23047 7.2109 3.2578 14.055 8.4414 19.074 5.1836 5.0195 12.117 7.8281 19.332 7.832h122.72c8.3164-0.007813 16.285-3.3242 22.145-9.2266 5.8594-5.8984 9.125-13.891 9.0742-22.203-1.0078-177.89-92.25-270.59-163.08-315.82z"/>
  <path d="m601.5 825.96h78.469c4.5781 0.003906 8.957-1.8555 12.137-5.1484 3.1797-3.293 4.8789-7.7383 4.7148-12.312l-13.477-380.2c-0.26172-7.5039-3.4258-14.613-8.8242-19.828-5.3984-5.2148-12.613-8.1328-20.121-8.1328h-105.8c-7.5117 0-14.727 2.918-20.129 8.1328s-8.5742 12.324-8.8398 19.828l-13.383 380.3c-0.16016 4.5703 1.5469 9.0117 4.7227 12.305 3.1758 3.293 7.5547 5.1523 12.129 5.1562z"/>
  <path d="m299.32 1002.4h601.36c6.9023 0 13.523-2.7422 18.402-7.6289 4.8828-4.8828 7.6211-11.508 7.6133-18.41v-87.375c0-6.8984-2.7422-13.516-7.6211-18.395-4.8789-4.8789-11.496-7.6211-18.395-7.6211h-601.36c-6.8984 0-13.516 2.7422-18.395 7.6211-4.8789 4.8789-7.6211 11.496-7.6211 18.395v87.375c-0.007813 6.9023 2.7305 13.527 7.6133 18.41 4.8789 4.8867 11.5 7.6289 18.402 7.6289zm516.3-91.781c5.8594-0.007812 11.48 2.3164 15.625 6.457 4.1445 4.1367 6.4727 9.7539 6.4766 15.613 0.003907 5.8594-2.3242 11.477-6.4648 15.621-4.1445 4.1406-9.7617 6.4688-15.621 6.4648-5.8594-0.003906-11.477-2.332-15.613-6.4766-4.1406-4.1445-6.4648-9.7656-6.457-15.625 0-5.8477 2.3242-11.457 6.4609-15.594s9.7461-6.4609 15.594-6.4609zm-215.51 0c5.8594-0.007812 11.48 2.3164 15.625 6.457 4.1445 4.1367 6.4727 9.7539 6.4766 15.613s-2.3242 11.477-6.4648 15.621c-4.1445 4.1406-9.7617 6.4688-15.621 6.4648-5.8594-0.003906-11.477-2.332-15.613-6.4766-4.1406-4.1445-6.4648-9.7656-6.457-15.625 0-5.8281 2.3086-11.422 6.418-15.555 4.1094-4.1328 9.6914-6.4688 15.52-6.5zm-215.51 0c5.8594-0.007812 11.48 2.3164 15.625 6.457 4.1445 4.1367 6.4727 9.7539 6.4766 15.613 0.003906 5.8594-2.3242 11.477-6.4648 15.621-4.1445 4.1406-9.7617 6.4688-15.621 6.4648-5.8594-0.003906-11.477-2.332-15.613-6.4766-4.1406-4.1445-6.4648-9.7656-6.457-15.625 0-5.8281 2.3086-11.422 6.418-15.555 4.1094-4.1328 9.6914-6.4688 15.52-6.5z"/>
 </g>
</svg>

<?xml version="1.0" encoding="UTF-8" standalone="no"?>
<!DOCTYPE svg PUBLIC "-//W3C//DTD SVG 1.1//EN" "http://www.w3.org/Graphics/SVG/1.1/DTD/svg11.dtd">
<svg width="100%" height="100%" viewBox="0 0 512 381" version="1.1" xmlns="http://www.w3.org/2000/svg" xmlns:xlink="http://www.w3.org/1999/xlink" xml:space="preserve" xmlns:serif="http://www.serif.com/" style="fill-rule:evenodd;clip-rule:evenodd;stroke-linejoin:round;stroke-miterlimit:2;">
    <g transform="matrix(1,0,0,1,-59.0568,-197.692)">
        <g transform="matrix(0.473178,0,0,0.473178,31.1124,104.149)">
            <path d="M934.31,197.88C928.353,196.872 922.466,199.993 919.955,205.486C917.443,210.978 918.939,217.474 923.599,221.318C938.087,233.123 951.146,246.58 962.505,261.419C1007.04,319.638 1018,397.589 988.989,464.88C973.059,503.056 944.087,534.329 907.239,553.122C902.638,555.489 899.196,559.625 897.712,564.583C896.228,569.54 896.822,574.887 899.364,579.395C921.864,619.379 940.005,668.457 948.067,728.055C948.868,734.015 952.649,739.156 958.098,741.699C963.548,744.242 969.914,743.832 974.996,740.617C1043.6,697.587 1136.86,612.037 1140.75,463.637C1140.68,463.708 1159.4,238.027 934.306,197.877L934.31,197.88Z" style="fill:white;fill-rule:nonzero;"/>
            <path d="M276.4,221.34C281.06,217.496 282.556,211 280.044,205.508C277.533,200.016 271.646,196.895 265.689,197.903C40.689,238.051 59.439,463.732 59.439,463.732C63.283,612.112 156.47,697.662 224.999,740.622C230.093,743.81 236.46,744.185 241.894,741.619C247.328,739.056 251.082,733.9 251.859,727.943C259.922,668.318 278.062,619.263 300.562,579.283C303.07,574.794 303.656,569.482 302.187,564.556C300.718,559.63 297.316,555.505 292.758,553.126C255.887,534.353 226.887,503.087 210.938,464.907C181.922,397.618 192.915,319.597 237.422,261.447C248.805,246.603 261.887,233.146 276.399,221.345L276.4,221.34Z" style="fill:white;fill-rule:nonzero;"/>
            <path d="M319.85,825.96L442.97,825.96C450.146,825.94 457.036,823.148 462.2,818.163C467.364,813.179 470.399,806.39 470.673,799.218L482.65,493.428C482.802,488.959 481.329,484.584 478.501,481.119C475.677,477.65 471.689,475.326 467.282,474.572C462.872,473.818 458.341,474.689 454.524,477.021C383.321,521.552 289.754,614.361 288.754,794.531C288.7,802.828 291.946,810.804 297.782,816.703C303.618,822.598 311.559,825.93 319.856,825.961L319.85,825.96Z" style="fill:white;fill-rule:nonzero;"/>
            <path d="M748.29,478.71C744.481,476.304 739.927,475.37 735.478,476.085C731.033,476.8 726.997,479.112 724.134,482.593C721.271,486.069 719.778,490.472 719.931,494.976L729.657,799.056C729.888,806.267 732.915,813.111 738.099,818.13C743.282,823.149 750.216,825.958 757.431,825.962L880.151,825.962C888.467,825.954 896.436,822.638 902.296,816.735C908.155,810.837 911.421,802.844 911.37,794.532C910.362,616.642 819.12,523.942 748.29,478.712L748.29,478.71Z" style="fill:white;fill-rule:nonzero;"/>
            <path d="M601.5,825.96L679.969,825.96C684.547,825.964 688.926,824.105 692.106,820.812C695.286,817.519 696.985,813.073 696.821,808.5L683.344,428.3C683.082,420.796 679.918,413.687 674.52,408.472C669.121,403.257 661.907,400.339 654.399,400.339L548.599,400.339C541.087,400.339 533.872,403.257 528.47,408.472C523.068,413.686 519.895,420.796 519.63,428.3L506.247,808.6C506.087,813.17 507.794,817.611 510.97,820.905C514.145,824.198 518.524,826.057 523.099,826.061L601.5,825.96Z" style="fill:white;fill-rule:nonzero;"/>
            <path d="M299.318,1002.4L900.68,1002.4C907.582,1002.4 914.203,999.658 919.082,994.771C923.965,989.888 926.703,983.263 926.695,976.361L926.695,888.986C926.695,882.088 923.953,875.47 919.074,870.591C914.195,865.712 907.578,862.97 900.679,862.97L299.319,862.97C292.421,862.97 285.803,865.712 280.924,870.591C276.045,875.47 273.303,882.087 273.303,888.986L273.303,976.361C273.295,983.263 276.034,989.888 280.916,994.771C285.795,999.658 292.416,1002.4 299.318,1002.4ZM815.62,910.619C821.479,910.611 827.1,912.935 831.245,917.076C835.389,921.213 837.718,926.83 837.722,932.689C837.726,938.548 835.397,944.166 831.257,948.31C827.112,952.451 821.495,954.779 815.636,954.775C809.776,954.771 804.159,952.443 800.023,948.298C795.882,944.154 793.558,938.533 793.566,932.673C793.566,926.825 795.89,921.216 800.027,917.079C804.163,912.942 809.773,910.618 815.621,910.618L815.62,910.619ZM600.11,910.619C605.969,910.611 611.59,912.935 615.735,917.076C619.879,921.213 622.208,926.83 622.212,932.689C622.215,938.548 619.887,944.166 615.747,948.31C611.602,952.451 605.985,954.779 600.126,954.775C594.266,954.771 588.649,952.443 584.513,948.298C580.372,944.154 578.048,938.533 578.056,932.673C578.056,926.845 580.364,921.251 584.474,917.118C588.583,912.985 594.165,910.649 599.994,910.618L600.11,910.619ZM384.6,910.619C390.459,910.611 396.08,912.935 400.225,917.076C404.369,921.213 406.698,926.83 406.702,932.689C406.706,938.548 404.377,944.166 400.237,948.31C396.092,952.451 390.475,954.779 384.616,954.775C378.756,954.771 373.139,952.443 369.003,948.298C364.862,944.154 362.538,938.533 362.546,932.673C362.546,926.845 364.854,921.251 368.964,917.118C373.073,912.985 378.655,910.649 384.484,910.618L384.6,910.619Z" style="fill:white;fill-rule:nonzero;"/>
        </g>
    </g>
</svg>
